X: 5
T: Drag Her Round The Road
R: reel
M: 4/4
L: 1/8
K: Emin
BE{F}ED E{F}EDE | GEDB, (3DED B,D | GE{F}ED E{F}EDE | G2 BG ABGA |B~E3 B,~E3 | GEDB, (3DED B,D | GE{F}ED E{F}EDE | G2 BG AD ||G2 {A}GF GBdc | B2 {c}BA BcBA | G{A}GGF GBdc | (3ABA GB A2 (3DEF |G2 {A}GF GBdc | (3BcB Ac ~B3 A | G2 GF GBdc | (3ABA GB A2 ||


Tune 1148	Setting 14420

